X:4
T: Carpathian Tune (R-164 from String Beings)
L:1/8
K: Gm
M: C|
$SmallRMargin
$SmallLMargin
"Gm"GABc d2 d2|"A"^c2 c2 "D"d4|"Gm"BAG2 A2B2|"D"A8|"Gm"GABc d2 d2|"A"^c2 c2 "D"d4|"Gm"BAG2 "D"A2B2|G8:|
|:"Cm"(3cdcG2 (3cdcG2|"Gm"(3BcBG2 (3BcBG2|"Cm"(3cdcG2 c2>d2|"Gm"BcAB "Gm/B"G4|
"Cm"(3cdcG2 (3cdcG2|"Gm"(3BcBG2 B2c2|"D"d6 de|["Repeat" d2c2B2A2:|["Transition""D5"d2=e2f2g2||
%%textfont       Times-Roman 12.0
%%text In the transition, harmony drones D below A.  That's what the notation "D5" means.

$NormLMargin
$NormRMargin
%%vskip .2cm
